X:14867
T:Saskatoon Breakdown
C:Jim Magill
R:reel
M:4/4
L:1/8
K:A
g2|agfg a2e2|cded c2A2|aece aecA|d2B2 B2g2|
agfg a2e2|cded c2A2|ABcd efed|c2A2 A2:|
|:cd|efed cAce|a2e2 e2fg|a2e2 EAce|d2B2 B2cd|
efed cAce|a2e2 e2fg|a2A2 efed|c2A2 A2:|
